X:1
T:James Gibb editions
T:Herzlich tu mich erfreuen - Hagius
T:#
%%score [ 1 2 3 ]
L:1/8
Q:1/4=100
M:4/4
K:F
V:1 treble nm="Soprano I" snm="S I"
V:2 treble nm="Soprano II" snm="S II"
V:3 treble nm="Alto" snm="A"
V:1
"^Herzlich tu mich erfreuen""^Conrad Hagius\n(1550-1620)" A4 B4 | c2 d4 c2 | B4 A4 | z2 d2 c2 B2 | %4
w: ~Herz- lich|tut mich er-|freu- en|die fröh- lich|
w: ~Der Kuk-|kuck mit seim|Schrei- en|macht fröh- lich|
w: ~Dar- um|lob ich den|Som- mer,|da- zu den|
[M:4/4] c2 A2 =B4 | A4 _B4 | c2 d4 c2 | B4 A4 | z2 d2 c2 B2 | c2 A2 =B4 | z2 d2 d4- | d2 g2 e2 d2 | %12
w: Som- mer- zeit,|all mein|Ge- müt er-|neu- en,|der Mai viel|Wol- lust geit.|Die Lerch|* tut sich er-|
w: je- der- mann,|des A-|bends fröh- lich|rei- hen|die Maid- lein|wohl- ge- tan;|spa- zie-|* ren zu den|
w: Mai- en gut,|der wend|uns al- len|Kum- mer|und bringt viel|Freud und Mut.|Der Zeit|* will ich ge-|
 e4 ^f4 | z2 d2 =f3 f | _e4 c4 | d4 z2 d2 ||[M:3/4] d4 d2 | c4 c2 ||[M:4/4] B4 A4 | z2 A2 c2 d2 | %20
w: schwin- gen|mit ih- rem|hel- len|Schall, lieb-|lich die|Vög- lein|sin- gen,|vor- aus die|
w: Bron- nen|pflegt- man zu|die- ser|Zeit, all|Welt sucht|Freud und|Won- nen|mit Rei- sen|
w: nie- ssen,|die- weil ich|Pfen- nig|hab, und|wen es|tut ver-|drie- ssen,|der fall die|
 (c3 B A2) A2 | =B8 |] %22
w: Nach\- * * ti-|gall.|
w: fern * * und|weit.|
w: Stie\- * * gen|ab.|
V:2
 ^F4 G4 | A2 B4 A2 | G4 F4 | z2 B2 A2 G2 |[M:4/4] G2 ^F2 G4 | ^F4 G4 | A2 B4 A2 | G4 F4 | %8
w: Herz- lich|tut mich er-|freu- en|die fröh- lich|Som- mer- zeit,|all mein|Ge- müt er-|neu- en,|
w: Der Kuk-|kuck mit seim|Schrei- en|macht fröh- lich|je- der- mann,|des A-|bends fröh- lich|rei- hen|
w: Dar- um|lob ich den|Som- mer,|da- zu den|Mai- en gut,|der wend|uns al- len|Kum- mer|
 z2 B2 A2 G2 | G2 ^F2 G4 | z2 B2 (BABc | d2 B2 ^c2 d2- | d2 ^c2 d4 | z2 B2 A2 F2 | GA B4) A2 | %15
w: der Mai viel|Wol- lust geit.|Die Lerch * * *|* tut sich er\-|* schwin- gen|mit ih- rem|hel\- * * len|
w: die Maid- lein|wohl- ge- tan;|spa- zie- * * *|* ren zu den|* Bron- nen|pflegt- man zu|die\- * * ser|
w: und bringt viel|Freud und Mut.|Der Zeit * * *|* will ich ge\-|* nie- ssen,|die- weil ich|Pfen\- * * nig|
 B4 z2 B2 ||[M:3/4] B4 B2 | A4 A2 ||[M:4/4] G4 ^F4 | z2 ^F2 G2 B2 | (AG- G4) ^F2 | G8 |] %22
w: Schall, lieb-|lich die|Vög- lein|sin- gen,|vor- aus die|Nach\- * * ti-|gall.|
w: Zeit, all|Welt sucht|Freud und|Won- nen|mit Rei- sen|fern * * und|weit.|
w: hab, und|wen es|tut ver-|drie- ssen,|der fall die|Stie\- * * gen|ab.|
V:3
 D4 G4 | F2 B,4 F2 | G4 D4 | z2 B,2 F2 G2 |[M:4/4] C2 D2 G4 | D4 G4 | F2 B,4 F2 | G4 D4 | %8
w: Herz- lich|tut mich er-|freu- en|die fröh- lich|Som- mer- zeit,|all mein|Ge- müt er-|neu- en,|
w: Der Kuk-|kuck mit seim|Schrei- en|macht fröh- lich|je- der- mann,|des A-|bends fröh- lich|rei- hen|
w: Dar- um|lob ich den|Som- mer,|da- zu den|Mai- en gut,|der wend|uns al- len|Kum- mer|
 z2 B,2 F2 G2 | C2 D2 G4 | z2 G2 GFGA | B2 G2 A2 B2 | A4 D4 | z2 G2 F2 D2 | _E4 F4 | B,4 z2 B,2 || %16
w: der Mai viel|Wol- lust geit.|Die Lerch * * *|* tut sich er-|schwin- gen|mit ih- rem|hel- len|Schall, lieb-|
w: die Maid- lein|wohl- ge- tan;|spa- zie\- * * *|* ren zu den|Bron- nen|pflegt- man zu|die- ser|Zeit, all|
w: und bringt viel|Freud und Mut.|Der Zeit * * *|* will ich ge-|nie- ssen,|die- weil ich|Pfen- nig|hab, und|
[M:3/4] B,4 B,2 | F4 F2 ||[M:4/4] G4 D4 | z2 D2 C2 B,2 | C4 D4 | G8 |] %22
w: lich die|Vög- lein|sin- gen,|vor- aus die|Nach- ti-|gall.|
w: Welt sucht|Freud und|Won- nen|mit Rei- sen|fern und|weit.|
w: wen es|tut ver-|drie- ssen,|der fall die|Stie- gen|ab.|

